svgs/theathletic.svg

<?xml version="1.0" encoding="UTF-8" standalone="no"?><svg xmlns:android="http://schemas.android.com/apk/res/android" height="192" width="192" xmlns="http://www.w3.org/2000/svg">
  <path d="M96,22H59.5M96,22L134.405,120M96,22L57.595,120M38,170H22M38,170H58M38,170L57.595,120M154,170H170M154,170H134M154,170L134.405,120M134.405,120H57.595" fill="#000000" fill-opacity="0.0" stroke="#000000" stroke-linecap="round" stroke-linejoin="round" stroke-width="12"/>
</svg>

<svg width="192" height="192" viewBox="0 0 192 192" fill="none" xmlns="http://www.w3.org/2000/svg"><path d="M96 22H59.5M96 22l38.405 98M96 22l-38.405 98M38 170H22m16 0h20m-20 0 19.595-50M154 170h16m-16 0h-20m20 0-19.595-50m0 0h-76.81" stroke="#000" stroke-width="12" stroke-linecap="round" stroke-linejoin="round"/></svg>
